X:1
T:Lustspels 5-rsvals
C:Sven Midgren
R:Vals
Z:Sven Midgren, 081130
O:Lund
M:3/4
L:1/8
K:A
EA c2 BA | ce d2 (F2 | F)B GE FG | AG Ac EA |
 c2 BA ce | d2 (F2  F)B | GE FG A2 :|
FA c2 BA | GA BG E2 | FA c2 BA | Be BG E2 |
FA c2 BA | Bf dB cA | BG A4 :|
